packages/icons/svgs/solid/twitter-solid.svg

<svg width="12" height="12" viewBox="0 0 12 12" xmlns="http://www.w3.org/2000/svg"><path d="M12 2.25c-.45.225-.9.3-1.425.375.525-.3.9-.75 1.05-1.35-.45.3-.975.45-1.575.6a2.619 2.619 0 0 0-1.8-.75c-1.275 0-2.4 1.125-2.4 2.475 0 .225 0 .375.075.525a6.901 6.901 0 0 1-5.1-2.55c-.225.375-.3.75-.3 1.275 0 .825.45 1.575 1.125 2.025-.375 0-.75-.15-1.125-.3 0 1.2.825 2.175 1.95 2.4-.225.075-.45.075-.675.075-.15 0-.3 0-.45-.075A2.43 2.43 0 0 0 3.675 8.7C2.85 9.375 1.8 9.75.6 9.75H0c1.125.675 2.4 1.125 3.75 1.125 4.5 0 6.975-3.75 6.975-6.975v-.3c.525-.375.975-.825 1.275-1.35Z"/></svg>

<svg width="12" height="12" viewBox="0 0 12 12" fill="none" xmlns="http://www.w3.org/2000/svg">
<path d="M12 2.25C11.55 2.475 11.1 2.55 10.575 2.625C11.1 2.325 11.475 1.875 11.625 1.275C11.175 1.575 10.65 1.725 10.05 1.875C9.6 1.425 8.925 1.125 8.25 1.125C6.975 1.125 5.85 2.25 5.85 3.6C5.85 3.825 5.85 3.975 5.925 4.125C3.9 4.05 2.025 3.075 0.825 1.575C0.6 1.95 0.525 2.325 0.525 2.85C0.525 3.675 0.975 4.425 1.65 4.875C1.275 4.875 0.9 4.725 0.525 4.575C0.525 5.775 1.35 6.75 2.475 6.975C2.25 7.05 2.025 7.05 1.8 7.05C1.65 7.05 1.5 7.05 1.35 6.975C1.65 7.95 2.55 8.7 3.675 8.7C2.85 9.375 1.8 9.75 0.6 9.75C0.375 9.75 0.225 9.75 0 9.75C1.125 10.425 2.4 10.875 3.75 10.875C8.25 10.875 10.725 7.125 10.725 3.9C10.725 3.825 10.725 3.675 10.725 3.6C11.25 3.225 11.7 2.775 12 2.25Z" fill="black"/>
</svg>
